X:158
M:C
L:1/8
K:D Minor
d>ef>g a>fg>e|f>dc>A F>GA>c|d>ef>g a>fg>e|f>de>^c d/d/d d>f|
d>ef>g a>fg>e|f>dc>A F>GA>F|A>cF>A A/A/A a>g|f>de>^c d/d/d d2||

